X:1
T:Brighton Camp (The Girl I Left Behind Me)
L:1/8
Q:1/4=110
M:2/4
K:G
"G" ed BA |"Em" BG E>F |"C"GG G/A/B/c/ |"D" d2 B g/f/ |
"G" ed BA |"Em" BG E>G |"C" "D"F/G/A DE/F/ |"G" G2 G B ::
 d3"G" z | B3"G" z | c3"C" z |"D"!>!.[dg] z"C" !>!.[cf] z |
"Em" z4 |"D" z4 |"C" z4"D" |"G" z4 :|
